ocio/studio-config-v2.2.0_aces-v1.3_ocio-v2.3.ocio
ocio_profile_version: 2.3

environment:
  {}
search_path: ""
strictparsing: true
luma: [0.2126, 0.7152, 0.0722]
name: studio-config-v2.2.0_aces-v1.3_ocio-v2.3
description: |
  Academy Color Encoding System - Studio Config [COLORSPACES v2.2.0] [ACES v1.3] [OCIO v2.3]
  ------------------------------------------------------------------------------------------

  This "OpenColorIO" config is geared toward studios requiring a config that includes a wide variety of camera colorspaces, displays and looks.

roles:
  aces_interchange: ACES2065-1
  cie_xyz_d65_interchange: CIE XYZ-D65 - Display-referred
  color_picking: sRGB Encoded Rec.709 (sRGB)
  color_timing: ACEScct
  compositing_log: ACEScct
  data: Raw
  matte_paint: ACEScct
  scene_linear: ACEScg
  texture_paint: sRGB Encoded Rec.709 (sRGB)

file_rules:
# Note: https://github.com/AndrewWhatling/JetpackSquirrelProjectConfig/blob/main/startup_dependencies/software/ocio/aces_custom_01.ocio
  - !<Rule> {name: srgb_tx, colorspace: sRGB - Texture, pattern: "*srgb_tx*", extension: "*"}
  - !<Rule> {name: srgb_texture, colorspace: sRGB - Texture, pattern: "*srgb_texture*", extension: "*"}
  - !<Rule> {name: ACEScg, colorspace: ACEScg, pattern: "*ACEScg*", extension: "*"}
  - !<Rule> {name: lin_rec709, colorspace: Linear Rec.709 (sRGB), pattern: "*lin_rec709*", extension: "*"}
  - !<Rule> {name: lin_srgb, colorspace: Linear Rec.709 (sRGB), pattern: "*lin_srgb*", extension: "*"}
  - !<Rule> {name: jpg, colorspace: sRGB - Texture, pattern: "*", extension: jpg}
  - !<Rule> {name: jpeg, colorspace: sRGB - Texture, pattern: "*", extension: jpeg}
  - !<Rule> {name: tga, colorspace: sRGB - Texture, pattern: "*", extension: tga}
  - !<Rule> {name: png, colorspace: sRGB - Texture, pattern: "*", extension: png}
  - !<Rule> {name: tif, colorspace: sRGB - Texture, pattern: "*", extension: tif}
  - !<Rule> {name: tiff, colorspace: sRGB - Texture, pattern: "*", extension: tiff}
  - !<Rule> {name: exr, colorspace: ACEScg, pattern: "*", extension: exr}
  - !<Rule> {name: __usdz_jpg, colorspace: sRGB - Texture, regex: ".[uu][ss][dd][zz]\\[.*[jj][pp][gg]\\]"}
  - !<Rule> {name: __usdz_jpeg, colorspace: sRGB - Texture, regex: ".[uu][ss][dd][zz]\\[.*[jj][pp][ee][gg]\\]"}
  - !<Rule> {name: __usdz_tga, colorspace: sRGB - Texture, regex: ".[uu][ss][dd][zz]\\[.*[tt][gg][aa]\\]"}
  - !<Rule> {name: __usdz_png, colorspace: sRGB - Texture, regex: ".[uu][ss][dd][zz]\\[.*[pp][nn][gg]\\]"}
  - !<Rule> {name: __usdz_tif, colorspace: sRGB - Texture, regex: ".[uu][ss][dd][zz]\\[.*[tt][ii][ff]\\]"}
  - !<Rule> {name: __usdz_tiff, colorspace: sRGB - Texture, regex: ".[uu][ss][dd][zz]\\[.*[tt][ii][ff][ff]\\]"}
  - !<Rule> {name: __usdz_exr, colorspace: ACEScg, regex: ".[uu][ss][dd][zz]\\[.*[ee][xx][rr]\\]"}
  - !<Rule> {name: Default, colorspace: ACES2065-1}

shared_views:
  - !<View> {name: ACES 1.0 - SDR Video, view_transform: ACES 1.0 - SDR Video, display_colorspace: <USE_DISPLAY_NAME>}
  - !<View> {name: ACES 1.0 - SDR Video (D60 sim on D65), view_transform: ACES 1.0 - SDR Video (D60 sim on D65), display_colorspace: <USE_DISPLAY_NAME>}
  - !<View> {name: ACES 1.1 - SDR Video (P3 lim), view_transform: ACES 1.1 - SDR Video (P3 lim), display_colorspace: <USE_DISPLAY_NAME>}
  - !<View> {name: ACES 1.1 - SDR Video (Rec.709 lim), view_transform: ACES 1.1 - SDR Video (Rec.709 lim), display_colorspace: <USE_DISPLAY_NAME>}
  - !<View> {name: ACES 1.1 - HDR Video (1000 nits & Rec.2020 lim), view_transform: ACES 1.1 - HDR Video (1000 nits & Rec.2020 lim), display_colorspace: <USE_DISPLAY_NAME>}
  - !<View> {name: ACES 1.1 - HDR Video (2000 nits & Rec.2020 lim), view_transform: ACES 1.1 - HDR Video (2000 nits & Rec.2020 lim), display_colorspace: <USE_DISPLAY_NAME>}
  - !<View> {name: ACES 1.1 - HDR Video (4000 nits & Rec.2020 lim), view_transform: ACES 1.1 - HDR Video (4000 nits & Rec.2020 lim), display_colorspace: <USE_DISPLAY_NAME>}
  - !<View> {name: ACES 1.1 - HDR Video (1000 nits & P3 lim), view_transform: ACES 1.1 - HDR Video (1000 nits & P3 lim), display_colorspace: <USE_DISPLAY_NAME>}
  - !<View> {name: ACES 1.1 - HDR Video (2000 nits & P3 lim), view_transform: ACES 1.1 - HDR Video (2000 nits & P3 lim), display_colorspace: <USE_DISPLAY_NAME>}
  - !<View> {name: ACES 1.1 - HDR Video (4000 nits & P3 lim), view_transform: ACES 1.1 - HDR Video (4000 nits & P3 lim), display_colorspace: <USE_DISPLAY_NAME>}
  - !<View> {name: ACES 1.0 - SDR Cinema, view_transform: ACES 1.0 - SDR Cinema, display_colorspace: <USE_DISPLAY_NAME>}
  - !<View> {name: ACES 1.1 - SDR Cinema (Rec.709 lim), view_transform: ACES 1.1 - SDR Cinema (Rec.709 lim), display_colorspace: <USE_DISPLAY_NAME>}
  - !<View> {name: ACES 1.0 - SDR Cinema (D60 sim on DCI), view_transform: ACES 1.0 - SDR Cinema (D60 sim on DCI), display_colorspace: <USE_DISPLAY_NAME>}
  - !<View> {name: ACES 1.1 - SDR Cinema (D60 sim on D65), view_transform: ACES 1.1 - SDR Cinema (D60 sim on D65), display_colorspace: <USE_DISPLAY_NAME>}
  - !<View> {name: ACES 1.1 - SDR Cinema (D65 sim on DCI), view_transform: ACES 1.1 - SDR Cinema (D65 sim on DCI), display_colorspace: <USE_DISPLAY_NAME>}
  - !<View> {name: ACES 1.1 - HDR Cinema (108 nits & P3 lim), view_transform: ACES 1.1 - HDR Cinema (108 nits & P3 lim), display_colorspace: <USE_DISPLAY_NAME>}
  - !<View> {name: Un-tone-mapped, view_transform: Un-tone-mapped, display_colorspace: <USE_DISPLAY_NAME>}

displays:
  sRGB - Display:
    - !<View> {name: Raw, colorspace: Raw}
    - !<Views> [ACES 1.0 - SDR Video, ACES 1.0 - SDR Video (D60 sim on D65), Un-tone-mapped]
  Display P3 - Display:
    - !<View> {name: Raw, colorspace: Raw}
    - !<Views> [ACES 1.0 - SDR Video, ACES 1.0 - SDR Video (D60 sim on D65), Un-tone-mapped]
  Rec.1886 Rec.709 - Display:
    - !<View> {name: Raw, colorspace: Raw}
    - !<Views> [ACES 1.0 - SDR Video, ACES 1.0 - SDR Video (D60 sim on D65), Un-tone-mapped]
  Rec.1886 Rec.2020 - Display:
    - !<View> {name: Raw, colorspace: Raw}
    - !<Views> [ACES 1.0 - SDR Video, ACES 1.1 - SDR Video (P3 lim), ACES 1.1 - SDR Video (Rec.709 lim), Un-tone-mapped]
  Rec.2100-HLG - Display:
    - !<View> {name: Raw, colorspace: Raw}
    - !<Views> [ACES 1.1 - HDR Video (1000 nits & Rec.2020 lim), Un-tone-mapped]
  Rec.2100-PQ - Display:
    - !<View> {name: Raw, colorspace: Raw}
    - !<Views> [ACES 1.1 - HDR Video (1000 nits & Rec.2020 lim), ACES 1.1 - HDR Video (2000 nits & Rec.2020 lim), ACES 1.1 - HDR Video (4000 nits & Rec.2020 lim), Un-tone-mapped]
  ST2084-P3-D65 - Display:
    - !<View> {name: Raw, colorspace: Raw}
    - !<Views> [ACES 1.1 - HDR Video (1000 nits & P3 lim), ACES 1.1 - HDR Video (2000 nits & P3 lim), ACES 1.1 - HDR Video (4000 nits & P3 lim), ACES 1.1 - HDR Cinema (108 nits & P3 lim), Un-tone-mapped]
  P3-D60 - Display:
    - !<View> {name: Raw, colorspace: Raw}
    - !<Views> [ACES 1.0 - SDR Cinema, Un-tone-mapped]
  P3-D65 - Display:
    - !<View> {name: Raw, colorspace: Raw}
    - !<Views> [ACES 1.0 - SDR Cinema, ACES 1.1 - SDR Cinema (Rec.709 lim), ACES 1.1 - SDR Cinema (D60 sim on D65), Un-tone-mapped]
  P3-DCI - Display:
    - !<View> {name: Raw, colorspace: Raw}
    - !<Views> [ACES 1.0 - SDR Cinema (D60 sim on DCI), ACES 1.1 - SDR Cinema (D65 sim on DCI), Un-tone-mapped]

active_displays: [sRGB - Display, Display P3 - Display, Rec.1886 Rec.709 - Display, Rec.1886 Rec.2020 - Display, Rec.2100-HLG - Display, Rec.2100-PQ - Display, ST2084-P3-D65 - Display, P3-D60 - Display, P3-D65 - Display, P3-DCI - Display]
active_views: [ACES 1.0 - SDR Video, ACES 1.0 - SDR Video (D60 sim on D65), ACES 1.1 - SDR Video (P3 lim), ACES 1.1 - SDR Video (Rec.709 lim), ACES 1.1 - HDR Video (1000 nits & Rec.2020 lim), ACES 1.1 - HDR Video (2000 nits & Rec.2020 lim), ACES 1.1 - HDR Video (4000 nits & Rec.2020 lim), ACES 1.1 - HDR Video (1000 nits & P3 lim), ACES 1.1 - HDR Video (2000 nits & P3 lim), ACES 1.1 - HDR Video (4000 nits & P3 lim), ACES 1.0 - SDR Cinema, ACES 1.1 - SDR Cinema (Rec.709 lim), ACES 1.0 - SDR Cinema (D60 sim on DCI), ACES 1.1 - SDR Cinema (D60 sim on D65), ACES 1.1 - SDR Cinema (D65 sim on DCI), ACES 1.1 - HDR Cinema (108 nits & P3 lim), Un-tone-mapped, Raw]
inactive_colorspaces: [CIE XYZ-D65 - Display-referred, CIE XYZ-D65 - Scene-referred]

looks:
  - !<Look>
    name: ACES 1.3 Reference Gamut Compression
    process_space: ACES2065-1
    description: |
      LMT (applied in ACES2065-1) to compress scene-referred values from common cameras into the AP1 gamut

      ACEStransformID: urn:ampas:aces:transformId:v1.5:LMT.Academy.ReferenceGamutCompress.a1.v1.0

      AMF Components
      --------------
      ACEStransformID: urn:ampas:aces:transformId:v1.5:InvLMT.Academy.ReferenceGamutCompress.a1.v1.0
    transform: !<BuiltinTransform> {style: ACES-LMT - ACES 1.3 Reference Gamut Compression}


default_view_transform: Un-tone-mapped

view_transforms:
  - !<ViewTransform>
    name: Un-tone-mapped
    from_scene_reference: !<BuiltinTransform> {style: UTILITY - ACES-AP0_to_CIE-XYZ-D65_BFD}

  - !<ViewTransform>
    name: ACES 1.0 - SDR Video
    description: |
      Component of ACES Output Transforms for SDR D65 video

      ACEStransformID: urn:ampas:aces:transformId:v1.5:ODT.Academy.RGBmonitor_100nits_dim.a1.0.3
      ACEStransformID: urn:ampas:aces:transformId:v1.5:ODT.Academy.DisplayP3_dim.a1.0.0
      ACEStransformID: urn:ampas:aces:transformId:v1.5:ODT.Academy.Rec709_100nits_dim.a1.0.3
      ACEStransformID: urn:ampas:aces:transformId:v1.5:ODT.Academy.Rec2020_100nits_dim.a1.0.3

      AMF Components
      --------------
      ACEStransformID: urn:ampas:aces:transformId:v1.5:InvODT.Academy.RGBmonitor_100nits_dim.a1.0.3
      ACEStransformID: urn:ampas:aces:transformId:v1.5:InvODT.Academy.DisplayP3_dim.a1.0.0
      ACEStransformID: urn:ampas:aces:transformId:v1.5:InvODT.Academy.Rec709_100nits_dim.a1.0.3
      ACEStransformID: urn:ampas:aces:transformId:v1.5:InvODT.Academy.Rec2020_100nits_dim.a1.0.3
    from_scene_reference: !<BuiltinTransform> {style: ACES-OUTPUT - ACES2065-1_to_CIE-XYZ-D65 - SDR-VIDEO_1.0}

  - !<ViewTransform>
    name: ACES 1.0 - SDR Video (D60 sim on D65)
    description: |
      Component of ACES Output Transforms for SDR D65 video simulating D60 white

      ACEStransformID: urn:ampas:aces:transformId:v1.5:ODT.Academy.RGBmonitor_D60sim_100nits_dim.a1.0.3
      ACEStransformID: urn:ampas:aces:transformId:v1.5:ODT.Academy.DisplayP3_D60sim_dim.a1.0.0
      ACEStransformID: urn:ampas:aces:transformId:v1.5:ODT.Academy.Rec709_D60sim_100nits_dim.a1.0.3

      AMF Components
      --------------
      ACEStransformID: urn:ampas:aces:transformId:v1.5:InvODT.Academy.RGBmonitor_D60sim_100nits_dim.a1.0.3
      ACEStransformID: urn:ampas:aces:transformId:v1.5:InvODT.Academy.DisplayP3_D60sim_dim.a1.0.0
      ACEStransformID: urn:ampas:aces:transformId:v1.5:InvODT.Academy.Rec709_D60sim_100nits_dim.a1.0.3
    from_scene_reference: !<BuiltinTransform> {style: ACES-OUTPUT - ACES2065-1_to_CIE-XYZ-D65 - SDR-VIDEO-D60sim-D65_1.0}

  - !<ViewTransform>
    name: ACES 1.1 - SDR Video (P3 lim)
    description: |
      Component of ACES Output Transforms for SDR D65 video

      ACEStransformID: urn:ampas:aces:transformId:v1.5:ODT.Academy.Rec2020_P3D65limited_100nits_dim.a1.1.0
    from_scene_reference: !<BuiltinTransform> {style: ACES-OUTPUT - ACES2065-1_to_CIE-XYZ-D65 - SDR-VIDEO-P3lim_1.1}

  - !<ViewTransform>
    name: ACES 1.1 - SDR Video (Rec.709 lim)
    description: |
      Component of ACES Output Transforms for SDR D65 video

      ACEStransformID: urn:ampas:aces:transformId:v1.5:ODT.Academy.Rec2020_Rec709limited_100nits_dim.a1.1.0
    from_scene_reference: !<BuiltinTransform> {style: ACES-OUTPUT - ACES2065-1_to_CIE-XYZ-D65 - SDR-VIDEO-REC709lim_1.1}

  - !<ViewTransform>
    name: ACES 1.1 - HDR Video (1000 nits & Rec.2020 lim)
    description: |
      Component of ACES Output Transforms for 1000 nit HDR D65 video

      ACEStransformID: urn:ampas:aces:transformId:v1.5:RRTODT.Academy.Rec2020_1000nits_15nits_HLG.a1.1.0
      ACEStransformID: urn:ampas:aces:transformId:v1.5:RRTODT.Academy.Rec2020_1000nits_15nits_ST2084.a1.1.0

      AMF Components
      --------------
      ACEStransformID: urn:ampas:aces:transformId:v1.5:InvRRTODT.Academy.Rec2020_1000nits_15nits_HLG.a1.1.0
      ACEStransformID: urn:ampas:aces:transformId:v1.5:InvRRTODT.Academy.Rec2020_1000nits_15nits_ST2084.a1.1.0
    from_scene_reference: !<BuiltinTransform> {style: ACES-OUTPUT - ACES2065-1_to_CIE-XYZ-D65 - HDR-VIDEO-1000nit-15nit-REC2020lim_1.1}

  - !<ViewTransform>
    name: ACES 1.1 - HDR Video (2000 nits & Rec.2020 lim)
    description: |
      Component of ACES Output Transforms for 2000 nit HDR D65 video

      ACEStransformID: urn:ampas:aces:transformId:v1.5:RRTODT.Academy.Rec2020_2000nits_15nits_ST2084.a1.1.0

      AMF Components
      --------------
      ACEStransformID: urn:ampas:aces:transformId:v1.5:InvRRTODT.Academy.Rec2020_2000nits_15nits_ST2084.a1.1.0
    from_scene_reference: !<BuiltinTransform> {style: ACES-OUTPUT - ACES2065-1_to_CIE-XYZ-D65 - HDR-VIDEO-2000nit-15nit-REC2020lim_1.1}

  - !<ViewTransform>
    name: ACES 1.1 - HDR Video (4000 nits & Rec.2020 lim)
    description: |
      Component of ACES Output Transforms for 4000 nit HDR D65 video

      ACEStransformID: urn:ampas:aces:transformId:v1.5:RRTODT.Academy.Rec2020_4000nits_15nits_ST2084.a1.1.0

      AMF Components
      --------------
      ACEStransformID: urn:ampas:aces:transformId:v1.5:InvRRTODT.Academy.Rec2020_4000nits_15nits_ST2084.a1.1.0
    from_scene_reference: !<BuiltinTransform> {style: ACES-OUTPUT - ACES2065-1_to_CIE-XYZ-D65 - HDR-VIDEO-4000nit-15nit-REC2020lim_1.1}

  - !<ViewTransform>
    name: ACES 1.1 - HDR Video (1000 nits & P3 lim)
    description: |
      Component of ACES Output Transforms for 1000 nit HDR D65 video

      ACEStransformID: urn:ampas:aces:transformId:v1.5:RRTODT.Academy.P3D65_1000nits_15nits_ST2084.a1.1.0

      AMF Components
      --------------
      ACEStransformID: urn:ampas:aces:transformId:v1.5:InvRRTODT.Academy.P3D65_1000nits_15nits_ST2084.a1.1.0
    from_scene_reference: !<BuiltinTransform> {style: ACES-OUTPUT - ACES2065-1_to_CIE-XYZ-D65 - HDR-VIDEO-1000nit-15nit-P3lim_1.1}

  - !<ViewTransform>
    name: ACES 1.1 - HDR Video (2000 nits & P3 lim)
    description: |
      Component of ACES Output Transforms for 2000 nit HDR D65 video

      ACEStransformID: urn:ampas:aces:transformId:v1.5:RRTODT.Academy.P3D65_2000nits_15nits_ST2084.a1.1.0

      AMF Components
      --------------
      ACEStransformID: urn:ampas:aces:transformId:v1.5:InvRRTODT.Academy.P3D65_2000nits_15nits_ST2084.a1.1.0
    from_scene_reference: !<BuiltinTransform> {style: ACES-OUTPUT - ACES2065-1_to_CIE-XYZ-D65 - HDR-VIDEO-2000nit-15nit-P3lim_1.1}

  - !<ViewTransform>
    name: ACES 1.1 - HDR Video (4000 nits & P3 lim)
    description: |
      Component of ACES Output Transforms for 4000 nit HDR D65 video

      ACEStransformID: urn:ampas:aces:transformId:v1.5:RRTODT.Academy.P3D65_4000nits_15nits_ST2084.a1.1.0

      AMF Components
      --------------
      ACEStransformID: urn:ampas:aces:transformId:v1.5:InvRRTODT.Academy.P3D65_4000nits_15nits_ST2084.a1.1.0
    from_scene_reference: !<BuiltinTransform> {style: ACES-OUTPUT - ACES2065-1_to_CIE-XYZ-D65 - HDR-VIDEO-4000nit-15nit-P3lim_1.1}

  - !<ViewTransform>
    name: ACES 1.0 - SDR Cinema
    description: |
      Component of ACES Output Transforms for SDR cinema

      ACEStransformID: urn:ampas:aces:transformId:v1.5:ODT.Academy.P3D60_48nits.a1.0.3
      ACEStransformID: urn:ampas:aces:transformId:v1.5:ODT.Academy.P3D65_48nits.a1.1.0

      AMF Components
      --------------
      ACEStransformID: urn:ampas:aces:transformId:v1.5:InvODT.Academy.P3D60_48nits.a1.0.3
      ACEStransformID: urn:ampas:aces:transformId:v1.5:InvODT.Academy.P3D65_48nits.a1.1.0
    from_scene_reference: !<BuiltinTransform> {style: ACES-OUTPUT - ACES2065-1_to_CIE-XYZ-D65 - SDR-CINEMA_1.0}

  - !<ViewTransform>
    name: ACES 1.1 - SDR Cinema (Rec.709 lim)
    description: |
      Component of ACES Output Transforms for SDR cinema

      ACEStransformID: urn:ampas:aces:transformId:v1.5:ODT.Academy.P3D65_Rec709limited_48nits.a1.1.0
    from_scene_reference: !<BuiltinTransform> {style: ACES-OUTPUT - ACES2065-1_to_CIE-XYZ-D65 - SDR-CINEMA-REC709lim_1.1}

  - !<ViewTransform>
    name: ACES 1.0 - SDR Cinema (D60 sim on DCI)
    description: |
      Component of ACES Output Transforms for SDR DCI cinema simulating D60 white

      ACEStransformID: urn:ampas:aces:transformId:v1.5:ODT.Academy.P3DCI_48nits.a1.0.3

      AMF Components
      --------------
      ACEStransformID: urn:ampas:aces:transformId:v1.5:InvODT.Academy.P3DCI_48nits.a1.0.3
    from_scene_reference: !<BuiltinTransform> {style: ACES-OUTPUT - ACES2065-1_to_CIE-XYZ-D65 - SDR-CINEMA-D60sim-DCI_1.0}

  - !<ViewTransform>
    name: ACES 1.1 - SDR Cinema (D60 sim on D65)
    description: |
      Component of ACES Output Transforms for SDR D65 cinema simulating D60 white

      ACEStransformID: urn:ampas:aces:transformId:v1.5:ODT.Academy.P3D65_D60sim_48nits.a1.1.0

      AMF Components
      --------------
      ACEStransformID: urn:ampas:aces:transformId:v1.5:InvODT.Academy.P3D65_D60sim_48nits.a1.1.0
    from_scene_reference: !<BuiltinTransform> {style: ACES-OUTPUT - ACES2065-1_to_CIE-XYZ-D65 - SDR-CINEMA-D60sim-D65_1.1}

  - !<ViewTransform>
    name: ACES 1.1 - SDR Cinema (D65 sim on DCI)
    description: |
      Component of ACES Output Transforms for SDR DCI cinema simulating D65 white

      ACEStransformID: urn:ampas:aces:transformId:v1.5:ODT.Academy.P3DCI_D65sim_48nits.a1.1.0

      AMF Components
      --------------
      ACEStransformID: urn:ampas:aces:transformId:v1.5:InvODT.Academy.P3DCI_D65sim_48nits.a1.1.0
    from_scene_reference: !<BuiltinTransform> {style: ACES-OUTPUT - ACES2065-1_to_CIE-XYZ-D65 - SDR-CINEMA-D65sim-DCI_1.1}

  - !<ViewTransform>
    name: ACES 1.1 - HDR Cinema (108 nits & P3 lim)
    description: |
      Component of ACES Output Transforms for 108 nit HDR D65 cinema

      ACEStransformID: urn:ampas:aces:transformId:v1.5:RRTODT.Academy.P3D65_108nits_7point2nits_ST2084.a1.1.0

      AMF Components
      --------------
      ACEStransformID: urn:ampas:aces:transformId:v1.5:InvRRTODT.Academy.P3D65_108nits_7point2nits_ST2084.a1.1.0
    from_scene_reference: !<BuiltinTransform> {style: ACES-OUTPUT - ACES2065-1_to_CIE-XYZ-D65 - HDR-CINEMA-108nit-7.2nit-P3lim_1.1}

display_colorspaces:
  - !<ColorSpace>
    name: CIE XYZ-D65 - Display-referred
    aliases: [cie_xyz_d65_display, lin_ciexyzd65_display]
    family: ""
    equalitygroup: ""
    bitdepth: 32f
    description: The "CIE XYZ (D65)" display connection colorspace.
    isdata: false
    encoding: display-linear
    allocation: uniform

  - !<ColorSpace>
    name: sRGB - Display
    aliases: [srgb_display]
    family: Display
    equalitygroup: ""
    bitdepth: 32f
    description: |
      Convert CIE XYZ (D65 white) to sRGB (piecewise EOTF)

      AMF Components
      --------------
      ACEStransformID: urn:ampas:aces:transformId:v1.5:ODT.Academy.RGBmonitor_100nits_dim.a1.0.3
      ACEStransformID: urn:ampas:aces:transformId:v1.5:InvODT.Academy.RGBmonitor_100nits_dim.a1.0.3
      ACEStransformID: urn:ampas:aces:transformId:v1.5:ODT.Academy.RGBmonitor_D60sim_100nits_dim.a1.0.3
      ACEStransformID: urn:ampas:aces:transformId:v1.5:InvODT.Academy.RGBmonitor_D60sim_100nits_dim.a1.0.3
    isdata: false
    categories: [file-io]
    encoding: sdr-video
    allocation: uniform
    from_display_reference: !<BuiltinTransform> {style: DISPLAY - CIE-XYZ-D65_to_sRGB}

  - !<ColorSpace>
    name: Display P3 - Display
    aliases: [displayp3_display]
    family: Display
    equalitygroup: ""
    bitdepth: 32f
    description: |
      Convert CIE XYZ (D65 white) to Apple Display P3

      AMF Components
      --------------
      ACEStransformID: urn:ampas:aces:transformId:v1.5:ODT.Academy.DisplayP3_dim.a1.0.0
      ACEStransformID: urn:ampas:aces:transformId:v1.5:InvODT.Academy.DisplayP3_dim.a1.0.0
      ACEStransformID: urn:ampas:aces:transformId:v1.5:ODT.Academy.DisplayP3_D60sim_dim.a1.0.0
      ACEStransformID: urn:ampas:aces:transformId:v1.5:InvODT.Academy.DisplayP3_D60sim_dim.a1.0.0
    isdata: false
    categories: [file-io]
    encoding: sdr-video
    allocation: uniform
    from_display_reference: !<BuiltinTransform> {style: DISPLAY - CIE-XYZ-D65_to_DisplayP3}

  - !<ColorSpace>
    name: Rec.1886 Rec.709 - Display
    aliases: [rec1886_rec709_display]
    family: Display
    equalitygroup: ""
    bitdepth: 32f
    description: |
      Convert CIE XYZ (D65 white) to Rec.1886/Rec.709 (HD video)

      AMF Components
      --------------
      ACEStransformID: urn:ampas:aces:transformId:v1.5:ODT.Academy.Rec709_100nits_dim.a1.0.3
      ACEStransformID: urn:ampas:aces:transformId:v1.5:InvODT.Academy.Rec709_100nits_dim.a1.0.3
      ACEStransformID: urn:ampas:aces:transformId:v1.5:ODT.Academy.Rec709_D60sim_100nits_dim.a1.0.3
      ACEStransformID: urn:ampas:aces:transformId:v1.5:InvODT.Academy.Rec709_D60sim_100nits_dim.a1.0.3
    isdata: false
    categories: [file-io]
    encoding: sdr-video
    allocation: uniform
    from_display_reference: !<BuiltinTransform> {style: DISPLAY - CIE-XYZ-D65_to_REC.1886-REC.709}

  - !<ColorSpace>
    name: Rec.1886 Rec.2020 - Display
    aliases: [rec1886_rec2020_display]
    family: Display
    equalitygroup: ""
    bitdepth: 32f
    description: |
      Convert CIE XYZ (D65 white) to Rec.1886/Rec.2020 (UHD video)

      AMF Components
      --------------
      ACEStransformID: urn:ampas:aces:transformId:v1.5:ODT.Academy.Rec2020_100nits_dim.a1.0.3
      ACEStransformID: urn:ampas:aces:transformId:v1.5:InvODT.Academy.Rec2020_100nits_dim.a1.0.3
      ACEStransformID: urn:ampas:aces:transformId:v1.5:ODT.Academy.Rec2020_P3D65limited_100nits_dim.a1.1.0
      ACEStransformID: urn:ampas:aces:transformId:v1.5:ODT.Academy.Rec2020_Rec709limited_100nits_dim.a1.1.0
    isdata: false
    categories: [file-io]
    encoding: sdr-video
    allocation: uniform
    from_display_reference: !<BuiltinTransform> {style: DISPLAY - CIE-XYZ-D65_to_REC.1886-REC.2020}

  - !<ColorSpace>
    name: Rec.2100-HLG - Display
    aliases: [rec2100_hlg_display]
    family: Display
    equalitygroup: ""
    bitdepth: 32f
    description: |
      Convert CIE XYZ (D65 white) to Rec.2100-HLG, 1000 nit

      AMF Components
      --------------
      ACEStransformID: urn:ampas:aces:transformId:v1.5:RRTODT.Academy.Rec2020_1000nits_15nits_HLG.a1.1.0
      ACEStransformID: urn:ampas:aces:transformId:v1.5:InvRRTODT.Academy.Rec2020_1000nits_15nits_HLG.a1.1.0
    isdata: false
    categories: [file-io]
    encoding: hdr-video
    allocation: uniform
    from_display_reference: !<BuiltinTransform> {style: DISPLAY - CIE-XYZ-D65_to_REC.2100-HLG-1000nit}

  - !<ColorSpace>
    name: Rec.2100-PQ - Display
    aliases: [rec2100_pq_display]
    family: Display
    equalitygroup: ""
    bitdepth: 32f
    description: |
      Convert CIE XYZ (D65 white) to Rec.2100-PQ

      AMF Components
      --------------
      ACEStransformID: urn:ampas:aces:transformId:v1.5:RRTODT.Academy.Rec2020_1000nits_15nits_ST2084.a1.1.0
      ACEStransformID: urn:ampas:aces:transformId:v1.5:InvRRTODT.Academy.Rec2020_1000nits_15nits_ST2084.a1.1.0
      ACEStransformID: urn:ampas:aces:transformId:v1.5:RRTODT.Academy.Rec2020_2000nits_15nits_ST2084.a1.1.0
      ACEStransformID: urn:ampas:aces:transformId:v1.5:InvRRTODT.Academy.Rec2020_2000nits_15nits_ST2084.a1.1.0
      ACEStransformID: urn:ampas:aces:transformId:v1.5:RRTODT.Academy.Rec2020_4000nits_15nits_ST2084.a1.1.0
      ACEStransformID: urn:ampas:aces:transformId:v1.5:InvRRTODT.Academy.Rec2020_4000nits_15nits_ST2084.a1.1.0
    isdata: false
    categories: [file-io]
    encoding: hdr-video
    allocation: uniform
    from_display_reference: !<BuiltinTransform> {style: DISPLAY - CIE-XYZ-D65_to_REC.2100-PQ}

  - !<ColorSpace>
    name: ST2084-P3-D65 - Display
